X:27
T:Slow March
S:Ashworth's Instructor, p. 38
M:C
%%MIDI program 72
%%MIDI transpose 8
L:1/8
K:D
A2|d2 f>d e2 g>e|fefg a2 b2|a>ag>f g>gf>e|fe d2 z2 fd|a2 e>e e2 f2|f2 e4 d2|
(3(cde) (3(fed) c2 B2|A2 A>A A2::e2|a2 e>e e2 f2|f2 e4 f2|g2 fe fdaf|
f2 e2 z2 A2|d2 f>d e2 g>e|f>ef>g a2 g2|(3(fga) (3(bag) f2 e2|d2 d>d d2:|]

